www/assets/icons/signal_cellular_connected_no_internet_4_bar.svg

<svg xmlns="http://www.w3.org/2000/svg" width="24" height="24" viewBox="0 0 24 24" fill='currentColor'><path d="M20 18h2v-8h-2zm0 4h2v-2h-2zM2 22h16V8h4V2z"/></svg>

<svg width="24" height="24" viewBox="0 0 24 24" xmlns="http://www.w3.org/2000/svg" fill='currentColor'><path d="M20 18H22V10H20V18ZM20 22H22V20H20V22ZM2 22H18V8H22V2L2 22Z"/></svg>
